source/img/icons/icon-save-money.svg

<svg width="57" height="57" viewBox="0 0 57 57" fill="none" xmlns="http://www.w3.org/2000/svg">
<path d="M53.2235 28.106L50.6829 27.7878C49.9104 25.8981 48.8007 24.15 47.4215 22.6376L49.2895 14.7239C49.3663 14.3986 49.2902 14.0561 49.0828 13.7941C48.8754 13.532 48.5597 13.3791 48.2255 13.3789L47.9865 13.3788C47.9851 13.3788 47.9841 13.3788 47.9827 13.3788C44.8818 13.3788 42.0872 15.3298 40.988 18.1915C40.2105 17.8825 39.4113 17.628 38.5963 17.4352C38.0084 17.2962 37.4192 17.6598 37.2802 18.2478C37.1411 18.8357 37.5049 19.4249 38.0928 19.5639C40.8769 20.2225 43.3605 21.6304 45.3181 23.5841C45.3897 23.6889 45.4788 23.7817 45.5836 23.8567C47.0106 25.3545 48.1386 27.1515 48.8703 29.1653C49.0104 29.5512 49.355 29.8262 49.7624 29.8771L52.952 30.2765C53.4506 30.3389 53.8265 30.7649 53.8265 31.2674V36.7818C53.8265 37.2842 53.4505 37.7102 52.952 37.7727L49.9963 38.1427C49.5712 38.1959 49.2162 38.4924 49.0883 38.9013C48.2114 41.703 46.5454 44.1804 44.2701 46.0656C44.0193 46.2734 43.8742 46.5822 43.8742 46.9078V52.9534C43.8742 53.496 43.4327 53.9374 42.8902 53.9374H36.5457C36.0031 53.9374 35.5617 53.496 35.5617 52.9534V50.6493C35.5617 50.0452 35.0719 49.5555 34.4679 49.5555H25.2789C24.6749 49.5555 24.1851 50.0452 24.1851 50.6493V52.9534C24.1851 53.496 23.7437 53.9374 23.2011 53.9374H16.8565C16.314 53.9374 15.8725 53.496 15.8725 52.9534V48.6846C15.8725 48.2835 15.653 47.9147 15.3006 47.7234C10.3916 45.0582 7.34192 39.936 7.34192 34.3559C7.34192 25.9747 14.1605 19.1562 22.5417 19.1562H23.9122C24.5162 19.1562 25.006 18.6665 25.006 18.0624C25.006 17.4584 24.5162 16.9687 23.9122 16.9687H22.5417C14.4225 16.9687 7.58604 22.5629 5.68237 30.0992H4.88098C3.40333 30.0992 2.20129 28.897 2.20129 27.4195C2.20129 25.9419 3.40333 24.7398 4.88098 24.7398C5.48495 24.7398 5.97473 24.2501 5.97473 23.646C5.97473 23.042 5.48495 22.5523 4.88098 22.5523C2.19725 22.5523 0.0137939 24.7356 0.0137939 27.4195C0.0137939 30.1033 2.19725 32.2867 4.88098 32.2867H5.27812C5.19718 32.9654 5.15442 33.6557 5.15442 34.3559C5.15442 40.5191 8.40658 46.1938 13.6849 49.3214V52.9535C13.6849 54.7023 15.1077 56.125 16.8563 56.125H23.2009C24.9497 56.125 26.3724 54.7023 26.3724 52.9535V51.7432H33.3739V52.9535C33.3739 54.7023 34.7967 56.125 36.5455 56.125H42.89C44.6387 56.125 46.0614 54.7023 46.0614 52.9535V47.4121C48.2822 45.459 49.958 42.9953 50.9498 40.2279L53.2234 39.9432C54.8142 39.7442 56.0138 38.385 56.0138 36.7818V31.2674C56.0138 29.6643 54.8143 28.3051 53.2235 28.106ZM45.5847 20.8971C44.7687 20.2297 43.8948 19.6384 42.9756 19.1307C43.5799 17.3944 45.0539 16.1024 46.8116 15.6991L45.5847 20.8971Z" fill="white"/>
<path d="M43.5527 27.8986C43.3494 27.6952 43.0672 27.5781 42.7795 27.5781C42.4919 27.5781 42.2097 27.6952 42.0063 27.8986C41.8028 28.102 41.6858 28.3842 41.6858 28.6719C41.6858 28.9595 41.8027 29.2417 42.0063 29.4452C42.2098 29.6486 42.4919 29.7656 42.7795 29.7656C43.0672 29.7656 43.3494 29.6486 43.5527 29.4452C43.7562 29.2417 43.8733 28.9595 43.8733 28.6719C43.8733 28.3842 43.7562 28.102 43.5527 27.8986Z" fill="white"/>
<path d="M32.0872 6.50519C31.4832 6.50519 30.9934 6.99486 30.9934 7.59894V11.9373C30.9934 12.5414 31.4832 13.031 32.0872 13.031C32.6911 13.031 33.1809 12.5414 33.1809 11.9373V7.59894C33.1809 6.99497 32.6912 6.50519 32.0872 6.50519Z" fill="white"/>
<path d="M32.8602 2.85715C32.6569 2.65371 32.3747 2.53668 32.0871 2.53668C31.7993 2.53668 31.5172 2.65371 31.3138 2.85715C31.1103 3.06059 30.9933 3.34278 30.9933 3.63043C30.9933 3.91918 31.1102 4.20028 31.3138 4.40371C31.5172 4.60715 31.7993 4.72418 32.0871 4.72418C32.3747 4.72418 32.6569 4.60715 32.8602 4.40371C33.0637 4.20028 33.1808 3.91809 33.1808 3.63043C33.1808 3.34278 33.0637 3.06168 32.8602 2.85715Z" fill="white"/>
<path d="M23.2013 0.125C22.5973 0.125 22.1075 0.614672 22.1075 1.21875V3.07812C22.1075 3.6822 22.5973 4.17188 23.2013 4.17188C23.8053 4.17188 24.295 3.6822 24.295 3.07812V1.21875C24.295 0.614672 23.8054 0.125 23.2013 0.125Z" fill="white"/>
<path d="M12.4758 34.356C12.4758 33.7519 11.986 33.2622 11.3821 33.2622C10.7781 33.2622 10.2883 33.7519 10.2883 34.356L10.2884 34.414C10.2921 35.0157 10.7812 35.501 11.3821 35.501C11.3843 35.501 11.3865 35.501 11.389 35.501C11.9929 35.4972 12.4796 35.0044 12.4759 34.4004L12.4758 34.356Z" fill="white"/>
<path d="M17.3172 42.9618C15.416 41.8047 13.9319 40.027 13.1385 37.9562C12.9222 37.392 12.2897 37.1099 11.7258 37.3262C11.1617 37.5424 10.8796 38.1748 11.0958 38.7389C12.0615 41.2597 13.8672 43.423 16.1802 44.8304C16.3578 44.9385 16.5539 44.99 16.7476 44.99C17.1168 44.99 17.4771 44.8031 17.6831 44.4647C17.9971 43.9487 17.8332 43.2758 17.3172 42.9618Z" fill="white"/>
<path d="M23.2013 5.38068C20.6683 5.38068 18.6075 7.44141 18.6075 9.97443C18.6075 12.5074 20.6683 14.5682 23.2013 14.5682C25.7343 14.5682 27.795 12.5074 27.795 9.97443C27.795 7.44141 25.7343 5.38068 23.2013 5.38068ZM23.2013 12.3807C21.8745 12.3807 20.795 11.3013 20.795 9.97443C20.795 8.6476 21.8745 7.56818 23.2013 7.56818C24.5281 7.56818 25.6075 8.6476 25.6075 9.97443C25.6075 11.3013 24.5281 12.3807 23.2013 12.3807Z" fill="white"/>
<path d="M36.9825 23.3125H35.9982C36.4306 22.6122 36.6809 21.788 36.6809 20.9062C36.6809 18.3732 34.6202 16.3125 32.0871 16.3125C29.5541 16.3125 27.4934 18.3732 27.4934 20.9062C27.4933 21.788 27.7435 22.6122 28.176 23.3125H22.7638C22.1598 23.3125 21.67 23.8022 21.67 24.4062C21.67 25.0103 22.1598 25.5 22.7638 25.5H36.9825C37.5865 25.5 38.0763 25.0103 38.0763 24.4062C38.0763 23.8022 37.5866 23.3125 36.9825 23.3125ZM32.0871 23.3125C30.7603 23.3125 29.6809 22.2331 29.6809 20.9062C29.6809 19.5794 30.7603 18.5 32.0871 18.5C33.414 18.5 34.4934 19.5794 34.4934 20.9062C34.4934 22.2331 33.4139 23.3125 32.0871 23.3125Z" fill="white"/>
</svg>

<svg width="57" height="57" fill="none" xmlns="http://www.w3.org/2000/svg"><path d="M53.224 28.106l-2.541-.318a17.472 17.472 0 0 0-3.261-5.15l1.867-7.914a1.093 1.093 0 0 0-1.064-1.345h-.239-.003c-3.101 0-5.896 1.95-6.995 4.813a17.2 17.2 0 0 0-2.392-.757 1.094 1.094 0 1 0-.503 2.129 15.147 15.147 0 0 1 7.225 4.02c.072.105.16.198.266.273a15.222 15.222 0 0 1 3.286 5.308c.14.386.485.661.892.712l3.19.4a1 1 0 0 1 .875.99v5.515a1 1 0 0 1-.875.99l-2.956.37c-.425.054-.78.35-.908.76a15.176 15.176 0 0 1-4.818 7.164c-.25.207-.396.516-.396.842v6.045a.985.985 0 0 1-.984.984h-6.344a.985.985 0 0 1-.984-.984V50.65c0-.604-.49-1.093-1.094-1.093h-9.19c-.603 0-1.093.49-1.093 1.093v2.304a.985.985 0 0 1-.984.984h-6.345a.985.985 0 0 1-.984-.984v-4.268c0-.402-.219-.77-.571-.962a15.202 15.202 0 0 1-7.96-13.367c0-8.381 6.82-15.2 15.2-15.2h1.371a1.094 1.094 0 0 0 0-2.187h-1.37c-8.12 0-14.956 5.594-16.86 13.13h-.801a2.683 2.683 0 0 1-2.68-2.68 2.683 2.683 0 0 1 2.68-2.68 1.094 1.094 0 0 0 0-2.187A4.873 4.873 0 0 0 .014 27.42a4.873 4.873 0 0 0 4.867 4.868h.397a17.386 17.386 0 0 0 8.407 17.035v3.631a3.175 3.175 0 0 0 3.171 3.172h6.345a3.175 3.175 0 0 0 3.171-3.172v-1.21h7.002v1.21a3.175 3.175 0 0 0 3.171 3.172h6.345a3.175 3.175 0 0 0 3.171-3.172v-5.54a17.35 17.35 0 0 0 4.889-7.185l2.273-.285a3.191 3.191 0 0 0 2.79-3.161v-5.515c0-1.603-1.199-2.962-2.79-3.161zm-7.64-7.209a17.443 17.443 0 0 0-2.608-1.766 5.34 5.34 0 0 1 3.836-3.432l-1.227 5.198z" fill="#fff"/><path d="M43.553 27.899a1.102 1.102 0 0 0-.773-.32c-.288 0-.57.116-.774.32-.203.203-.32.485-.32.773 0 .287.117.57.32.773.204.204.486.32.773.32.288 0 .57-.116.774-.32.203-.203.32-.486.32-.773 0-.288-.117-.57-.32-.773zM32.087 6.505c-.604 0-1.094.49-1.094 1.094v4.338a1.094 1.094 0 0 0 2.188 0V7.6c0-.604-.49-1.094-1.094-1.094zM32.86 2.857a1.101 1.101 0 0 0-.773-.32c-.288 0-.57.117-.773.32-.204.204-.32.486-.32.773 0 .29.116.57.32.774.203.203.485.32.773.32.288 0 .57-.117.773-.32.204-.204.32-.486.32-.774 0-.287-.116-.568-.32-.773zM23.201.125c-.604 0-1.093.49-1.093 1.094v1.86a1.094 1.094 0 0 0 2.187 0v-1.86c0-.604-.49-1.094-1.094-1.094zM12.476 34.356a1.094 1.094 0 0 0-2.188 0v.058a1.094 1.094 0 0 0 1.094 1.087h.007a1.094 1.094 0 0 0 1.087-1.1v-.045zM17.317 42.962a10.139 10.139 0 0 1-4.178-5.006 1.094 1.094 0 1 0-2.043.783 12.335 12.335 0 0 0 5.084 6.091 1.093 1.093 0 0 0 1.137-1.869zM23.201 5.38a4.599 4.599 0 0 0-4.593 4.594 4.599 4.599 0 0 0 4.593 4.594 4.599 4.599 0 0 0 4.594-4.594 4.599 4.599 0 0 0-4.594-4.593zm0 7a2.409 2.409 0 0 1-2.406-2.406 2.409 2.409 0 0 1 2.406-2.406 2.409 2.409 0 0 1 2.407 2.406 2.409 2.409 0 0 1-2.407 2.407zM36.983 23.313h-.985c.433-.7.683-1.525.683-2.407a4.599 4.599 0 0 0-4.594-4.593 4.599 4.599 0 0 0-4.594 4.593c0 .882.25 1.706.683 2.407h-5.412a1.094 1.094 0 0 0 0 2.187h14.219a1.094 1.094 0 0 0 0-2.188zm-4.896 0a2.409 2.409 0 0 1-2.406-2.407 2.409 2.409 0 0 1 2.406-2.406 2.409 2.409 0 0 1 2.406 2.406 2.409 2.409 0 0 1-2.406 2.407z" fill="#fff"/></svg>
